X:4030
T:Give Me Your Hand
Z:Chords by Ken Laberteaux irtrad-l 2001-11-7
M:3/4
L:1/8
K:G Major
D2|"C"E2 G2 G2|"G"G4 D2|"C"E2 G2 G2|"G"G4 D2|"C"E2 G2 G2|"G"G2 A2 B2 |"Bm"B2 e2 d2|"Em"B4 AG|
"Am"A2 A2 ed|"Em"B2 B2 dB|"D"A3 B AG|"C"E4 D2|"C"E2 G2 G2|"G"G4 D2|"C"E2 G2 G2|"G"G4 D2|
"C"E2 G2 G2|"G"G2 A2 B2|"D"D3 B AB|"G"G4 D2|"C"E2 G2 G2|"G"G2 A2 B2|"Bm"B2 e2 d2|"Em"B4 AG|
"Am"A2 A2 ed|"Em"B2 B2 dB|"D"A2 A2 Bd|"C"e4 dB|"G"d2 d2 e2|g4 ed|"Am"e2 e2 g2|"D"a4 ge|
"G"g2 g2 de|"Em"g2 g2 de|"C"g2 g2 a2|"G"b6|"G"b2 b2 b2|b4 ag|"D"a2 ag ab|a4 gf|
"C"e2 e2 ge|"G"d2 d2 gd|B2 B2 dB|"D"A3 c BA|"G"G3G Bd|"F"=f4 ed| "C"e2 e2 g2|"Am"e4 dB|
"G"d2 d2 gd|"Em"B2 B2 dB|"D"A3 c BA|"G"G4|]
